app/images/icons/work-1.svg

<svg xmlns="http://www.w3.org/2000/svg" fill="none" viewBox="0 0 50 50"><defs/><path fill="#CA6D38" d="M48.375 13.3438c-.586-.586-1.3808-.9151-2.2095-.9151-.8287 0-1.6234.3291-2.2094.9151l-.9873.9873V1.5625c0-.2072-.0824-.40591-.2289-.55243-.1465-.14651-.3452-.22882-.5524-.22882H7.8125c-.2072 0-.40591.08231-.55243.22882-.14651.14652-.22882.34523-.22882.55243v46.875c0 .2072.08231.4059.22882.5524.14652.1465.34523.2289.55243.2289h28.125c.2072 0 .406-.0822.5527-.2286l6.25-6.25c.1464-.1467.2286-.3455.2286-.5527V23.1699l5.4062-5.4072c.5853-.5864.914-1.381.914-2.2095 0-.8285-.3287-1.6231-.914-2.2094zm-11.6562 33.208v-3.583h3.583l-3.583 3.583zm4.6874-5.1456h-5.4687c-.2072 0-.4059.0824-.5524.2289-.1465.1465-.2289.3452-.2289.5524v5.4687H8.59375V2.34375H41.4062V15.8936L19.7861 37.5137c-.0855.0857-.1503.19-.1894.3047l-1.6572 4.9726c-.0389.1175-.0493.2424-.0305.3647.0188.1222.0664.2383.1387.3386.0723.1003.1674.1821.2774.2386.11.0565.2319.0861.3556.0864.0839-.0002.1673-.0137.247-.04l4.9727-1.6572c.1147-.0391.2189-.1039.3047-.1895l17.2011-17.2002v16.6738zm-19.9628-3.3408l2.2099 2.21-.4228.4219-3.3145 1.1054 1.1055-3.3144.4219-.4229zm3.3144 1.1055l-2.2099-2.21 19.1982-19.1982 2.21 2.21-19.1983 19.1982zm22.5127-22.5127l-2.21 2.21-2.2099-2.21 2.2099-2.21c.2931-.293.6906-.4577 1.105-.4577.4145 0 .8119.1647 1.105.4577.2931.2931.4577.6906.4577 1.105 0 .4145-.1646.8119-.4577 1.105z"/><path fill="#CA6D38" d="M16.8406 32.4193c-.4654-.4725-1.0146-.7699-1.5458-1.0574-.5227-.2832-1.0165-.5504-1.305-.9386-.5921-.7964-.2751-2.0686.3018-2.9763.9103-1.4329 2.4393-2.5879 4.6742-3.5309.9497-.4004 1.9575-.7399 2.9321-1.068 1.0221-.3441 2.0789-.6998 3.1015-1.1348.9001-.3829 2.0486-.9401 2.9476-1.8572.9886-1.0084 1.4867-2.2846 1.3665-3.502-.1191-1.2093-.8468-2.3554-1.9967-3.1445-1.0867-.7456-2.3685-1.0547-3.2382-1.2229-3.4662-.669-6.9675-.3216-10.3535.0145-.1029.0091-.2029.0386-.2943.0867-.0913.048-.1723.1137-.2381.1932-.0659.0796-.1153.1714-.1454.2701-.0302.0988-.0404.2025-.0302.3053.0101.1027.0406.2024.0896.2933.0489.0909.1154.1712.1956.2363.0802.065.1725.1135.2715.1427.0991.0291.2029.0384.3056.0271 3.2746-.325 6.6607-.6609 9.903-.035 1.1801.2278 1.9975.5292 2.6503.9765.7575.5198 1.2531 1.2709 1.3258 2.0091.0733.7449-.2735 1.5881-.9278 2.2559-.7058.72-1.6765 1.1867-2.4434 1.513-.9668.4113-1.9944.7572-2.9883 1.0918-1.0018.3372-2.0377.6859-3.0411 1.1091-2.5375 1.0709-4.2991 2.4226-5.3856 4.1326-.8007 1.2597-1.3429 3.2587-.237 4.7461.4948.6655 1.1962 1.0449 1.8151 1.3802.4499.2442.875.4738 1.1766.78.4865.4938.8972 1.5567.454 2.9274-.3676 1.1374-1.169 2.136-1.944 3.1016-.1297.1616-.1899.3681-.1673.5741.0226.206.126.3945.2876.5242.1617.1297.3682.1899.5741.1673.206-.0226.3946-.126.5242-.2876.8231-1.0254 1.7561-2.1882 2.2122-3.599.5424-1.6754.2175-3.4436-.8272-4.5039z"/></svg>

<svg width="50" height="50" viewBox="0 0 50 50" fill="none" xmlns="http://www.w3.org/2000/svg">
<path d="M48.375 13.3438C47.789 12.7578 46.9942 12.4287 46.1655 12.4287C45.3368 12.4287 44.5421 12.7578 43.9561 13.3438L42.9688 14.3311V1.5625C42.9688 1.3553 42.8864 1.15659 42.7399 1.01007C42.5934 0.86356 42.3947 0.78125 42.1875 0.78125H7.8125C7.6053 0.78125 7.40659 0.86356 7.26007 1.01007C7.11356 1.15659 7.03125 1.3553 7.03125 1.5625V48.4375C7.03125 48.6447 7.11356 48.8434 7.26007 48.9899C7.40659 49.1364 7.6053 49.2188 7.8125 49.2188H35.9375C36.1447 49.2188 36.3435 49.1366 36.4902 48.9902L42.7402 42.7402C42.8866 42.5935 42.9688 42.3947 42.9688 42.1875V23.1699L48.375 17.7627C48.9603 17.1763 49.289 16.3817 49.289 15.5532C49.289 14.7247 48.9603 13.9301 48.375 13.3438ZM36.7188 46.5518V42.9688H40.3018L36.7188 46.5518ZM41.4062 41.4062H35.9375C35.7303 41.4062 35.5316 41.4886 35.3851 41.6351C35.2386 41.7816 35.1562 41.9803 35.1562 42.1875V47.6562H8.59375V2.34375H41.4062V15.8936L19.7861 37.5137C19.7006 37.5994 19.6358 37.7037 19.5967 37.8184L17.9395 42.791C17.9006 42.9085 17.8902 43.0334 17.909 43.1557C17.9278 43.2779 17.9754 43.394 18.0477 43.4943C18.12 43.5946 18.2151 43.6764 18.3251 43.7329C18.4351 43.7894 18.557 43.819 18.6807 43.8193C18.7646 43.8191 18.848 43.8056 18.9277 43.7793L23.9004 42.1221C24.0151 42.083 24.1193 42.0182 24.2051 41.9326L41.4062 24.7324V41.4062ZM21.4434 38.0654L23.6533 40.2754L23.2305 40.6973L19.916 41.8027L21.0215 38.4883L21.4434 38.0654ZM24.7578 39.1709L22.5479 36.9609L41.7461 17.7627L43.9561 19.9727L24.7578 39.1709ZM47.2705 16.6582L45.0605 18.8682L42.8506 16.6582L45.0605 14.4482C45.3536 14.1552 45.7511 13.9905 46.1655 13.9905C46.58 13.9905 46.9774 14.1552 47.2705 14.4482C47.5636 14.7413 47.7282 15.1388 47.7282 15.5532C47.7282 15.9677 47.5636 16.3651 47.2705 16.6582Z" fill="#CA6D38"/>
<path d="M16.8406 32.4193C16.3752 31.9468 15.826 31.6494 15.2948 31.3619C14.7721 31.0787 14.2783 30.8115 13.9898 30.4233C13.3977 29.6269 13.7147 28.3547 14.2916 27.447C15.2019 26.0141 16.7309 24.8591 18.9658 23.9161C19.9155 23.5157 20.9233 23.1762 21.8979 22.8481C22.92 22.504 23.9768 22.1483 24.9994 21.7133C25.8995 21.3304 27.048 20.7732 27.947 19.8561C28.9356 18.8477 29.4337 17.5715 29.3135 16.3541C29.1944 15.1448 28.4667 13.9987 27.3168 13.2096C26.2301 12.464 24.9483 12.1549 24.0786 11.9867C20.6124 11.3177 17.1111 11.6651 13.7251 12.0012C13.6222 12.0103 13.5222 12.0398 13.4308 12.0879C13.3395 12.1359 13.2585 12.2016 13.1927 12.2811C13.1268 12.3607 13.0774 12.4525 13.0473 12.5512C13.0171 12.65 13.0069 12.7537 13.0171 12.8565C13.0272 12.9592 13.0577 13.0589 13.1067 13.1498C13.1556 13.2407 13.2221 13.321 13.3023 13.3861C13.3825 13.4511 13.4748 13.4996 13.5738 13.5288C13.6729 13.5579 13.7767 13.5672 13.8794 13.5559C17.154 13.2309 20.5401 12.895 23.7824 13.5209C24.9625 13.7487 25.7799 14.0501 26.4327 14.4974C27.1902 15.0172 27.6858 15.7683 27.7585 16.5065C27.8318 17.2514 27.485 18.0946 26.8307 18.7624C26.1249 19.4824 25.1542 19.9491 24.3873 20.2754C23.4205 20.6867 22.3929 21.0326 21.399 21.3672C20.3972 21.7044 19.3613 22.0531 18.3579 22.4763C15.8204 23.5472 14.0588 24.8989 12.9723 26.6089C12.1716 27.8686 11.6294 29.8676 12.7353 31.355C13.2301 32.0205 13.9315 32.3999 14.5504 32.7352C15.0003 32.9794 15.4254 33.209 15.727 33.5152C16.2135 34.009 16.6242 35.0719 16.181 36.4426C15.8134 37.58 15.012 38.5786 14.237 39.5442C14.1073 39.7058 14.0471 39.9123 14.0697 40.1183C14.0923 40.3243 14.1957 40.5128 14.3573 40.6425C14.519 40.7722 14.7255 40.8324 14.9314 40.8098C15.1374 40.7872 15.326 40.6838 15.4556 40.5222C16.2787 39.4968 17.2117 38.334 17.6678 36.9232C18.2102 35.2478 17.8853 33.4796 16.8406 32.4193Z" fill="#CA6D38"/>
</svg>
